X:1
T:Sacerdotes Domini
T:Bernhard Kothe
T:Sacerdotes Domini
T:CPDL   —   Creative Commons Attribution Non Commercial 3.0
T:CPDL   —   Creative Commons Attribution Non Commercial 3.0
T:CPDL   —   Creative Commons Attribution Non Commercial 3.0
T:CPDL   —   Creative Commons Attribution Non Commercial 3.0
C:Bernhard Kothe
Z:CPDL   —   Creative Commons Attribution Non Commercial 3.0
%%score [ 1 2 3 4 ]
L:1/8
Q:1/2=66
M:2/2
K:A
V:1 treble nm="Sopran"
V:2 treble nm="Alt"
V:3 treble-8 nm="Tenor"
V:4 bass nm="Bass"
V:1
!mf! A4!<(! A4 | B4!<)! B4 |!f! e6 e2 | e4!p! c4 | (d4 c4) | B4 A4 | (A4 G2 F2) | G4 A4 | %8
w: Sa- cer-|do- tes|Do- mi-|ni in-|cen- *|sum, in-|cen- * *|sum et|
!<(! B4 A4!<)! | d3 d c4 |!>(! B8!>)! | B6 z2 |!mf! A4!<(! A4 | B4!<)! B4 |!f! e6 e2 | e4 z4 | z8 | %17
w: pa- nem|of- fe- runt|De-|o;|sa- cer-|do- tes|Do- mi-|ni||
 z8 | z4 B4 | (e4 d4) | c4!p! c4 | (B4 c4) | d4 c4 | (f4 e4) | d4 B4 |!<(! c4 c4!<)! |!f! d3 c c4 | %27
w: |in-|cen- *|sum et|pa- *|nem, et|pa- *|nem, et|pa- nem|of- fe- runt|
!>(! B8!>)! | !breath!!fermata!c6!f! c2 | c6 A2 | A6 f2 | f6 c2 | c8 |!mf! d4 c4 | (c2 B2) A4 | %35
w: De-|o; et|i- de-|o, et|i- de-|o|san- cti|e- * runt|
 z2!p! B4 A2 | (A2 =G2) F4 | z2!<(! E4!<)! B2 |!>(! B2 ^AG A4!>)! | B4"^cresc." d4 | e4 A4 | %41
w: De- o|su- * o|et non|pol- lu- * ent,|et non|pol- *|
 f4 f4 | (f4 ^e4) |!ff! f8 | c8 | d8 | B8 | A8- |!>(! A2 G2 F2 G2!>)! | A4 z4 |!ff! e4 e4 | %51
w: * lu-|ent _|no-|men,|no-|men|e-||jus.|Al- le-|
 e4 c2 z2 | e4 e4 | e4 c2 c2 | d8 | f4 d4 | !fermata!c8 |] %57
w: lu- ja,|al- le-|lu- ja, al-|le-|lu- *|ja.|
V:2
!mf! E4!<(! E4 | F4!<)! F4 |!f! (G4 A2) B2 | A4!p! A4 | (A6 G2) | F4 E4 | D8 | D4 E4 | %8
w: Sa- cer-|do- tes|Do- * mi-|ni in-|cen- *|sum, in-|cen-|sum et|
!<(! G4 F4!<)! | A3 A (A2 G2) |!>(! F8!>)! | G6 z2 |!mf! E4!<(! E4 | F4!<)! F4 |!f! (G4 A2) B2 | %15
w: pa- nem|of- fe- runt *|De-|o;|sa- cer-|do- tes|Do- * mi-|
 A4 z4 | z4 F4 | (B4 A4) | G4 G4 | (A4 F2 G2) | A4!p! A4 | A8- | A8 | G4 A4 | B4 G4 | %25
w: ni|in-|cen- *|sum, in-|cen- * *|sum et|pa-|||nem, et|
!<(! A4 A4!<)! |!f! A3 A A4- |!>(! A2 GF G4!>)! | !breath!!fermata!A6!f! A2 | A6 F2 | F6 A2 | %31
w: pa- nem|of- fe- runt|_ De  \- * *||||
 A6 F2 | F8 |!mf! F4 F4 | G4 F4 | F4 E4 | C4 D4 | z8 | z8 |"^cresc." F8 | A8 | A4 B4 | B8 | %43
w: |||||su- o|||et|non|pol- lu-|ent|
!ff! A8 | A8 | B8 | F8 | E8- |!>(! E8!>)! | E2!f! E4 A2 | A2 GF G4 | z2 E4 A2 | A2 GF G4 | %53
w: ||||||jus. Al- le-|lu- * * ja,|al- le-|lu- * * ja,|
 z2 E4 A2 | A8 | d4 A4 | !fermata!A8 |] %57
w: al- le-|lu-||ja.|
V:3
!mf! c4!<(! c4 | d4!<)! d4 |!f! (B4 c2) d2 | c4!p! A4 | (f4 e4) | d4 c4 | B8 | B4 c4 | %8
w: Sa- cer-|do- tes|Do- * mi-|ni in-|cen- *|sum, in-|cen-|sum et|
!<(! d4 c4!<)! | f3 f e4- |!>(! (e4 ^d2) d2!>)! | e6 z2 |!mf! c4!<(! c4 | d4!<)! d4 | %14
w: pa- nem|of- fe- runt|_ _ De-|o;|sa- cer-|do- tes|
!f! (B4 c2) d2 | c4 c4 | (f4 e4) | d4 c4 | B8 | A4 B4 | c4!p! A4 | (d4 c4) | B4 A4 | (B4 c4) | %24
w: Do- * mi-|ni in-|cen- *|sum, in-|cen-||sum et|pa- *|nem, et|pa- *|
 d4 e4 |!<(! e4 e4!<)! |!f! f3 e e4 |!>(! e8!>)! | !breath!!fermata!e6!f! f2 | f6 c2 | c6 c2 | %31
w: nem, et|pa- nem|of- fe- runt|De-|o; et|i- de-|o, et|
 c6 c2 | c8 |!mf! B4 c4 | c4 c4 | d4 c4 | A4 B4 | B4 B4 | c2 c2 c4 | z2 F4"^cresc." d2 | d2 cB c4 | %41
w: i- de-|o|san- cti|e- runt|De- o|su- o|et non|pol- lu- ent,|et non|pol- lu- * ent,|
 d4 f4 | (^g4 c4) |!ff! c8 | f8 | d2 e2 f2 e2 | d2 c2 B2 d2 | (c8 |!>(! d8)!>)! | c4 z4 | %50
w: pol- lu-|ent, _|no-|men,|no- * * *|men _ _ _|e-||jus.|
 z2!ff! B4 d2 | d2 cB c2 z2 | z2 B4 d2 | d2 cB c2 e2 | f8 | a4 f4 | !fermata!e8 |] %57
w: Al- le-|lu- * * ja,|al- le-|lu- * * ja, al-|le-|lu- *|ja.|
V:4
!mf!"^Die Priester des Herrn bringen Gott Weihrauch und Brot dar," A,4!<(! A,4 | A,4!<)! A,4 | %2
w: Sa- cer-|do- tes|
!f! A,6 A,2 | A,4 z4 | z8 | z8 | z8 | z4!p! A,4 |!<(! E,4 F,4!<)! | D,3 D, A,4 |!>(! B,8!>)! | %11
w: Do- mi-|ni||||et|pa- nem|of- fe- runt|De-|
 E,6 z2 |!mf! A,4!<(! A,4 | A,4!<)! A,4 |!f! A,6 A,2 | A,4 z4 | z8 | z4 A,,4 | E,4 D,4 | C,4 B,,4 | %20
w: o;|sa- cer-|do- tes|Do- mi-|ni||in-|cen- *||
 A,,4!p! C,4 | (F,4 E,4) | D,4 z4 | z8 | z4 E,4 |!<(! A,4 A,4!<)! |!f! D3 A, A,4 |!>(! E,8!>)! | %28
w: sum et|pa- *|nem,||et|pa- nem|of- fe- runt|De-|
 !breath!!fermata!A,6!f!"^und deswegen werden sie heilig sein ihrem Gotte" F,2 | F,6 F,2 | %30
w: o; *||
 F,6 F,2 | F,6 A,2 | A,8 | z2!mf! B,4 A,2 | ^E,4 F,4 | z8 | z8 | %37
w: |||||||
"^und seinem Namen keine Schmach bereiten." =G,4 G,4 | F,6 E,2 | D,4"^cresc." B,,4 | A,,8 | %41
w: et non|pol- *|* lu-|ent,|
 z2 D,4 D2 | D2 CB, C4 |!ff! F,2 G,2 A,2 G,2 | F,2 E,2 D,2 C,2 | B,,8- | B,,4 D,4 | %47
w: et non|pol- lu- * ent|||||
 E,2 F,2 G,2 A,2 |!>(! B,4 E,4!>)! | A,4 z4 |!ff! E,4 E,4 | A,4 A,,2 z2 | E,4 E,4 | A,4 A,,2 A,2 | %54
w: |||Al- le-|lu- ja,|al- le-|lu- ja, al-|
 D,8 | D,8 | !fermata!A,,8 |] %57
w: le-|lu-|ja.|

